src/lib/packages/icons/src/assets/filled/briefcase-times.svg

<svg width="24" height="24" viewBox="0 0 24 24" fill="none" xmlns="http://www.w3.org/2000/svg">
<path d="M21.53 20.47C21.823 20.763 21.823 21.238 21.53 21.531C21.384 21.677 21.192 21.751 21 21.751C20.808 21.751 20.616 21.678 20.47 21.531L19.5 20.561L18.53 21.531C18.384 21.677 18.192 21.751 18 21.751C17.808 21.751 17.616 21.678 17.47 21.531C17.177 21.238 17.177 20.763 17.47 20.47L18.44 19.5L17.47 18.53C17.177 18.237 17.177 17.762 17.47 17.469C17.763 17.176 18.238 17.176 18.531 17.469L19.501 18.439L20.471 17.469C20.764 17.176 21.239 17.176 21.532 17.469C21.825 17.762 21.825 18.237 21.532 18.53L20.562 19.5L21.53 20.47ZM3 9.95996V9C3 7 4 6 6 6H7.25V4.5C7.25 3.54 8.03 2.75 9 2.75H15C15.96 2.75 16.75 3.54 16.75 4.5V6H18C20 6 21 7 21 9V9.95996C21 10.89 20.45 11.71 19.59 12.05C18.21 12.59 16.79 13.0101 15.36 13.3101C15.25 13.3301 15.15 13.25 15.09 13.16C14.36 12.08 13.21 11.4301 12 11.4301C10.8 11.4301 9.64001 12.08 8.92001 13.16C8.86001 13.25 8.74999 13.3301 8.64999 13.3101C7.21999 13.0101 5.79 12.59 4.41 12.04C3.55 11.71 3 10.89 3 9.95996ZM8.75 6H15.25V4.5C15.25 4.36 15.14 4.25 15 4.25H9C8.86 4.25 8.75 4.36 8.75 4.5V6ZM15 20C15 20.19 15.01 20.39 15.03 20.58C15.04 20.63 15.04 20.68 15.04 20.72C15.04 20.88 14.92 21 14.75 21H6C4 21 3 20 3 18V12.95C3.26 13.16 3.54999 13.3199 3.85999 13.4399C5.31999 14.0199 6.83001 14.47 8.35001 14.78C9.04001 14.92 9.75001 14.61 10.17 13.99C10.61 13.33 11.3 12.9301 12 12.9301C12.71 12.9301 13.4 13.33 13.84 13.99C14.19 14.51 14.74 14.8101 15.32 14.8101C15.43 14.8101 15.55 14.8 15.66 14.78C17.17 14.47 18.68 14.0199 20.14 13.4399C20.45 13.3199 20.74 13.16 21 12.96V14.75C21 14.91 20.89 15.04 20.72 15.04C20.68 15.04 20.63 15.04 20.59 15.03C20.4 15.01 20.2 15 20 15C17.24 15 15 17.24 15 20ZM13 15C13 14.448 12.553 14 12.002 14H11.994C11.443 14 11 14.448 11 15C11 15.552 11.451 16 12.002 16C12.553 16 13 15.552 13 15Z" fill="currentColor"/>
</svg>

<svg xmlns="http://www.w3.org/2000/svg" width="24" height="24" fill="none"><path fill="currentColor" d="M21.53 20.47a.75.75 0 0 1-1.06 1.061l-.97-.97-.97.97a.748.748 0 0 1-1.06 0 .75.75 0 0 1 0-1.061l.97-.97-.97-.97a.75.75 0 1 1 1.061-1.061l.97.97.97-.97a.75.75 0 1 1 1.061 1.061l-.97.97.968.97ZM3 9.96V9c0-2 1-3 3-3h1.25V4.5c0-.96.78-1.75 1.75-1.75h6c.96 0 1.75.79 1.75 1.75V6H18c2 0 3 1 3 3v.96c0 .93-.55 1.75-1.41 2.09-1.38.54-2.8.96-4.23 1.26-.11.02-.21-.06-.27-.15-.73-1.08-1.88-1.73-3.09-1.73-1.2 0-2.36.65-3.08 1.73-.06.09-.17.17-.27.15-1.43-.3-2.86-.72-4.24-1.27A2.204 2.204 0 0 1 3 9.96ZM8.75 6h6.5V4.5c0-.14-.11-.25-.25-.25H9c-.14 0-.25.11-.25.25V6ZM15 20c0 .19.01.39.03.58.01.05.01.1.01.14 0 .16-.12.28-.29.28H6c-2 0-3-1-3-3v-5.05c.26.21.55.37.86.49 1.46.58 2.97 1.03 4.49 1.34.69.14 1.4-.17 1.82-.79.44-.66 1.13-1.06 1.83-1.06.71 0 1.4.4 1.84 1.06.35.52.9.82 1.48.82.11 0 .23-.01.34-.03 1.51-.31 3.02-.76 4.48-1.34.31-.12.6-.28.86-.48v1.79c0 .16-.11.29-.28.29-.04 0-.09 0-.13-.01-.19-.02-.39-.03-.59-.03-2.76 0-5 2.24-5 5Zm-2-5a1 1 0 0 0-.998-1h-.008A.996.996 0 0 0 11 15a1 1 0 1 0 2 0Z"/></svg>
